X: 21
T:Sourgrass & Granite
R:
C:Brian Pickell
S:Denis Sprott via Pierre Schryer CD
Z:Alf 
M:3/4
L:1/8
K:D
FE|DA, DF Ad|c3d eg|f2 d2 A2|B3G D2|
B3c d2|F3G A2|1 Bc dA F2|E3G FE:|
|2 Bc dF E2|D3c de||
fB Bc d2|eA AB c2|d2 c2 B2|A4 FD|
B2 BA FA|D3F Ad|[1 f2 fe df|e3c de:|
|2 f2 fe dc|d6|]
